X:1
T:POR TODA MINHA VIDA
T:Antônio Carlos Jobim & Vinícius de Moraes transposição: Vanessa Torrens
L:1/8
M:4/4
K:D
V:1 treble nm="Piano" snm="Pno."
V:1
"Bm" B,4- B,C"Gm/Bb"D^A, |"Bm" B,2 B,2- B,C"Gm/Bb"D^A, |"Bm" B,CDE"A#dim" FGAE |"Dmaj7/A" F8 | %4
"Bm7" B3 F"F#m7" A2 A>F |"Gmaj7" AGFD"A""^7""^4" E2"A7" E2 |"Em7" GFEG"F#7b13" F3 E | %7
"B""^7""^4" E^DEF"E7" B,2 B,>C |"Bm" D3"E7" B,"Amaj7" C3"Dmaj7" A, | %9
"Gmaj7" B,3"C" G,"F#7" !fermata!A,4 |"B7b9" B,4- B,A,=C"Ab9""^7""^4"^F |"B7b9" B,2 B,2- B,A,=C_E | %12
"Adim" FGA=c"G#m7b5" B2 B2 |"G7b5" B2 B2"F#m7" B2 A2 | z"Gmaj7" AGB"Dmaj7" F2 F>D | %15
"G#dim" =FC"Em/G" !fermata!E2- EB,"F#7b13"!fermata!D^A, |"Cdim/B" B,4- B,A,=C_E | %17
"Adim" FGA=c"G#m7b5" B2 !fermata!B2 |"G7b5" B4"F#""^7""^4" B2"F#7" ^A2 |"Bm7" B4"Gmaj7" z4 | %20
"Em7" z8 |"Bmaj9" z8 |] %22

